src/assets/_raw_images/Adobe_Photoshop_CC_icon.svg

<svg enable-background="new 0 0 240 234" viewBox="0 0 240 234" xmlns="http://www.w3.org/2000/svg"><path d="m197.5 234h-155c-23.5 0-42.5-19-42.5-42.5v-149c0-23.5 19-42.5 42.5-42.5h155c23.5 0 42.5 19 42.5 42.5v149c0 23.5-19 42.5-42.5 42.5z" fill="#26c9ff"/><path d="m193.7 224h-147.4c-20 0-36.3-16.3-36.3-36.4v-141.2c0-20.1 16.3-36.4 36.3-36.4h147.3c20.1 0 36.3 16.3 36.3 36.3v141.3c.1 20.1-16.2 36.4-36.2 36.4z" fill="#062026"/><path d="m58 54.8c0-.7 1.4-1.2 2.2-1.2 6.4-.3 15.9-.5 25.8-.5 27.7 0 38.5 15.2 38.5 34.7 0 25.4-18.4 36.3-41 36.3-3.8 0-5.1-.2-7.8-.2v38.4c0 .8-.3 1.2-1.2 1.2h-15.3c-.8 0-1.2-.3-1.2-1.2zm17.8 53.1c2.3.2 4.1.2 8.1.2 11.7 0 22.7-4.1 22.7-20 0-12.7-7.9-19.1-21.2-19.1-4 0-7.8.2-9.6.3zm86-11.9c-7.9 0-10.6 4-10.6 7.3 0 3.6 1.8 6.1 12.4 11.6 15.7 7.6 20.6 14.9 20.6 25.6 0 16-12.2 24.6-28.7 24.6-8.7 0-16.2-1.8-20.5-4.3-.7-.3-.8-.8-.8-1.6v-14.7c0-1 .5-1.3 1.2-.8 6.3 4.1 13.5 5.9 20.1 5.9 7.9 0 11.2-3.3 11.2-7.8 0-3.6-2.3-6.8-12.4-12-14.2-6.8-20.1-13.7-20.1-25.2 0-12.9 10.1-23.6 27.6-23.6 8.6 0 14.6 1.3 17.9 2.8.8.5 1 1.3 1 2v13.7c0 .8-.5 1.3-1.5 1-4.4-2.8-10.9-4.5-17.4-4.5z" fill="#d9f5ff"/></svg>

<?xml version="1.0" encoding="utf-8"?>
<svg version="1.1" id="Capa_1" xmlns="http://www.w3.org/2000/svg" xmlns:xlink="http://www.w3.org/1999/xlink" x="0px" y="0px"
	 viewBox="0 0 240 234" style="enable-background:new 0 0 240 234;" xml:space="preserve">
<style type="text/css">
	.stEdge{fill:#26c9ff;}
	.stInner{fill:#062026;}
	.stPS{fill:#d9f5FF;}
</style>
<path class="stEdge" d="M197.5,234h-155C19,234,0,215,0,191.5v-149C0,19,19,0,42.5,0h155C221,0,240,19,240,42.5v149
	C240,215,221,234,197.5,234z"/>
<path class="stInner" d="M193.7,224H46.3C26.3,224,10,207.7,10,187.6V46.4C10,26.3,26.3,10,46.3,10h147.3c20.1,0,36.3,16.3,36.3,36.3
	v141.3C230,207.7,213.7,224,193.7,224z"/>
<path class="stPS" d="M58,54.8c0-0.7,1.4-1.2,2.2-1.2c6.4-0.3,15.9-0.5,25.8-0.5
	c27.7,0,38.5,15.2,38.5,34.7c0,25.4-18.4,36.3-41,36.3c-3.8,0-5.1-0.2-7.8-0.2v38.4c0,0.8-0.3,1.2-1.2,1.2H59.2
	c-0.8,0-1.2-0.3-1.2-1.2L58,54.8L58,54.8z M75.8,107.9c2.3,0.2,4.1,0.2,8.1,0.2c11.7,0,22.7-4.1,22.7-20c0-12.7-7.9-19.1-21.2-19.1
	c-4,0-7.8,0.2-9.6,0.3V107.9L75.8,107.9z M161.8,96c-7.9,0-10.6,4-10.6,7.3c0,3.6,1.8,6.1,12.4,11.6c15.7,7.6,20.6,14.9,20.6,25.6
	c0,16-12.2,24.6-28.7,24.6c-8.7,0-16.2-1.8-20.5-4.3c-0.7-0.3-0.8-0.8-0.8-1.6v-14.7c0-1,0.5-1.3,1.2-0.8c6.3,4.1,13.5,5.9,20.1,5.9
	c7.9,0,11.2-3.3,11.2-7.8c0-3.6-2.3-6.8-12.4-12c-14.2-6.8-20.1-13.7-20.1-25.2c0-12.9,10.1-23.6,27.6-23.6c8.6,0,14.6,1.3,17.9,2.8
	c0.8,0.5,1,1.3,1,2v13.7c0,0.8-0.5,1.3-1.5,1C174.8,97.7,168.3,96,161.8,96L161.8,96z"/>
</svg>
